Team Eins/src/images/exit.svg

<svg width="520.349" height="520.349" xmlns="http://www.w3.org/2000/svg">

 <g>
  <title>background</title>
  <rect fill="none" id="canvas_background" height="602" width="802" y="-1" x="-1"/>
 </g>
 <g>
  <title>Layer 1</title>
  <g fill="white" id="svg_1">
   <path id="svg_2" d="m445.223,0l-302.634,0c-6.683,0 -12.105,5.423 -12.105,12.105l0,180.979l16.65,0c-5.006,-6.392 -7.725,-14.224 -7.725,-22.467c-0.006,-9.764 3.8,-18.943 10.708,-25.845c1.421,-1.421 2.973,-2.687 4.583,-3.845l0,-116.716l278.417,0l0,8.697l-127.104,92.285l0,395.155l127.796,-92.787c1.626,4.77 6.095,8.228 11.414,8.228c6.685,0 12.105,-5.426 12.105,-12.105l0,-411.579c0,-6.688 -5.421,-12.105 -12.105,-12.105zm-91.192,331.973c-5.71,0 -10.468,-7.046 -11.691,-16.485l-13.63,0l0,-10.592l13.819,0c1.448,-8.86 6.017,-15.38 11.49,-15.38c6.638,0 12.011,9.498 12.011,21.231c0.012,11.721 -5.367,21.226 -11.999,21.226zm-203.909,-17.502c1.424,1.412 2.967,2.678 4.572,3.824l0,105.389c0,6.68 -5.426,12.105 -12.105,12.105c-6.683,0 -12.105,-5.426 -12.105,-12.105l0,-157.545l16.65,0c-11.186,14.327 -10.199,35.132 2.988,48.332zm86.584,-96.086c4.817,4.817 4.817,12.608 0,17.425l-58.995,59.001c-2.403,2.394 -5.556,3.605 -8.709,3.611c-3.153,-0.006 -6.307,-1.206 -8.71,-3.611c-4.811,-4.817 -4.805,-12.613 0,-17.419l37.974,-37.977l-122.93,0c-6.803,0 -12.315,-5.512 -12.315,-12.315c0,-6.803 5.506,-12.318 12.321,-12.318l122.917,0l-37.968,-37.974c-4.805,-4.805 -4.811,-12.608 0,-17.413c4.812,-4.812 12.614,-4.812 17.425,0l58.99,58.99z"/>
  </g>
  <g id="svg_3"/>
  <g id="svg_4"/>
  <g id="svg_5"/>
  <g id="svg_6"/>
  <g id="svg_7"/>
  <g id="svg_8"/>
  <g id="svg_9"/>
  <g id="svg_10"/>
  <g id="svg_11"/>
  <g id="svg_12"/>
  <g id="svg_13"/>
  <g id="svg_14"/>
  <g id="svg_15"/>
  <g id="svg_16"/>
  <g id="svg_17"/>
 </g>
</svg>

<?xml version="1.0" encoding="iso-8859-1"?>
<!-- Generator: Adobe Illustrator 16.0.0, SVG Export Plug-In . SVG Version: 6.00 Build 0)  -->
<!DOCTYPE svg PUBLIC "-//W3C//DTD SVG 1.1//EN" "http://www.w3.org/Graphics/SVG/1.1/DTD/svg11.dtd">
<svg version="1.1" id="Capa_1" xmlns="http://www.w3.org/2000/svg" xmlns:xlink="http://www.w3.org/1999/xlink" x="0px" y="0px"
	 width="520.349px" height="520.349px" viewBox="0 0 520.349 520.349" style="enable-background:new 0 0 520.349 520.349;"
	 xml:space="preserve">
<g>
	<path d="M445.223,0H142.589c-6.683,0-12.105,5.423-12.105,12.105v180.979h16.65c-5.006-6.392-7.725-14.224-7.725-22.467
		c-0.006-9.764,3.8-18.943,10.708-25.845c1.421-1.421,2.973-2.687,4.583-3.845V24.211h278.417v8.697l-127.104,92.285v395.155
		l127.796-92.787c1.626,4.77,6.095,8.228,11.414,8.228c6.685,0,12.105-5.426,12.105-12.105V12.105
		C457.328,5.417,451.907,0,445.223,0z M354.031,331.973c-5.71,0-10.468-7.046-11.691-16.485h-13.63v-10.592h13.819
		c1.448-8.86,6.017-15.38,11.49-15.38c6.638,0,12.011,9.498,12.011,21.231C366.042,322.468,360.663,331.973,354.031,331.973z
		 M150.122,314.471c1.424,1.412,2.967,2.678,4.572,3.824v105.389c0,6.68-5.426,12.105-12.105,12.105
		c-6.683,0-12.105-5.426-12.105-12.105V266.139h16.65C135.948,280.466,136.935,301.271,150.122,314.471z M236.706,218.385
		c4.817,4.817,4.817,12.608,0,17.425l-58.995,59.001c-2.403,2.394-5.556,3.605-8.709,3.611c-3.153-0.006-6.307-1.206-8.71-3.611
		c-4.811-4.817-4.805-12.613,0-17.419l37.974-37.977H75.336c-6.803,0-12.315-5.512-12.315-12.315
		c0-6.803,5.506-12.318,12.321-12.318h122.917l-37.968-37.974c-4.805-4.805-4.811-12.608,0-17.413
		c4.812-4.812,12.614-4.812,17.425,0L236.706,218.385z"/>
</g>
<g>
</g>
<g>
</g>
<g>
</g>
<g>
</g>
<g>
</g>
<g>
</g>
<g>
</g>
<g>
</g>
<g>
</g>
<g>
</g>
<g>
</g>
<g>
</g>
<g>
</g>
<g>
</g>
<g>
</g>
</svg>
